source/img/house.svg

<svg width="80" height="80" viewBox="0 0 80 80" fill="none" xmlns="http://www.w3.org/2000/svg">
<path fill-rule="evenodd" clip-rule="evenodd" d="M75.8916 43.1823L78 41.0939L68.0602 31.2486V4.39779H54.2048V17.5249L40.4498 4L3 41.1934L5.10843 43.2818L12.9398 35.5249V73.116H9.0241V76H73.1807V73.116H68.0602V35.4254L75.8916 43.1823ZM57.1165 7.38122H65.0482V28.3646L57.1165 20.5083V7.38122ZM65.0482 73.0166H15.9518V32.5414L40.4498 8.1768L65.0482 32.5414V73.0166ZM33.1206 68.5414H49.1849V44.7734H33.1206V68.5414ZM46.1728 65.6574H36.0323V47.6574H46.1728V65.6574ZM40.8515 39.3039C36.6347 39.3039 33.1206 35.8232 33.1206 31.547C33.1206 27.2707 36.5343 23.8895 40.8515 23.8895C45.1688 23.8895 48.6829 27.2707 48.6829 31.547C48.6829 35.8232 45.1688 39.3039 40.8515 39.3039ZM45.8716 31.547C45.8716 28.7625 43.5624 26.5746 40.8515 26.5746C38.1407 26.5746 35.8315 28.8619 35.8315 31.547C35.8315 34.3315 38.1407 36.5194 40.8515 36.5194C43.6628 36.5194 45.8716 34.2321 45.8716 31.547ZM23.0803 44.7734H20.0683V48.6519H23.0803V44.7734ZM26.0924 44.7734H29.1044V48.6519H26.0924V44.7734ZM23.0803 50.7404H20.0683V54.6188H23.0803V50.7404ZM26.0924 50.7404H29.1044V54.6188H26.0924V50.7404ZM55.2088 44.7734H52.1968V48.6519H55.2088V44.7734ZM58.2209 44.7734H61.2329V48.6519H58.2209V44.7734ZM55.2088 50.7404H52.1968V54.6188H55.2088V50.7404ZM58.2209 50.7404H61.2329V54.6188H58.2209V50.7404Z" fill="#81B3D2"/>
</svg>

<svg width="80" height="80" fill="none" xmlns="http://www.w3.org/2000/svg"><path fill-rule="evenodd" clip-rule="evenodd" d="M75.9 43.18 78 41.1l-9.94-9.84V4.4H54.2v13.12L40.45 4 3 41.2l2.1 2.08 7.84-7.76v37.6H9.02V76h64.16v-2.88h-5.12v-37.7l7.83 7.76ZM57.11 7.38h7.93v20.98l-7.93-7.85V7.38Zm7.93 65.64h-49.1V32.54l24.5-24.36 24.6 24.36v40.48Zm-31.93-4.48h16.06V44.77H33.12v23.77Zm13.05-2.88H36.03v-18h10.14v18ZM40.85 39.3a7.78 7.78 0 0 1-7.73-7.75 7.63 7.63 0 0 1 7.73-7.66 7.72 7.72 0 0 1 7.83 7.66 7.8 7.8 0 0 1-7.83 7.75Zm5.02-7.75a5.01 5.01 0 0 0-10.04 0 5.01 5.01 0 0 0 10.04 0ZM23.08 44.77h-3.01v3.88h3.01v-3.88Zm3.01 0h3.01v3.88h-3v-3.88Zm-3.01 5.97h-3.01v3.88h3.01v-3.88Zm3.01 0h3.01v3.88h-3v-3.88Zm29.12-5.97H52.2v3.88h3v-3.88Zm3.01 0h3.01v3.88h-3v-3.88Zm-3.01 5.97H52.2v3.88h3v-3.88Zm3.01 0h3.01v3.88h-3v-3.88Z" fill="#81B3D2"/></svg>
